assets/components_previews/general/light/cartesiangrid.svg

<svg xmlns="http://www.w3.org/2000/svg" width="320" height="232" fill="none" viewBox="0 0 320 232"><g filter="url(#a)"><rect width="160" height="108" x="80" y="62" fill="#fff" rx="12"/><path fill="#AA99EC" d="M114.092 93.12c-2.172 0-3.732-1.848-3.732-4.476 0-2.616 1.56-4.404 3.732-4.404s3.732 1.788 3.732 4.404c0 2.64-1.572 4.476-3.732 4.476m0-1.536c1.212 0 1.788-1.356 1.788-2.952 0-1.572-.564-2.856-1.788-2.856-1.236 0-1.788 1.296-1.788 2.856 0 1.608.576 2.952 1.788 2.952m7.443 1.536c-1.824 0-3.192-1.02-3.336-2.868h1.836c.132.996.612 1.452 1.428 1.452.696 0 1.236-.42 1.236-1.224 0-.768-.42-1.284-1.5-1.284h-.768v-1.392h.732c.936 0 1.332-.456 1.332-1.104 0-.6-.288-1.044-1.056-1.044-.66 0-1.188.396-1.296 1.212h-1.848c.204-1.62 1.38-2.628 3.204-2.628 1.812 0 2.94.888 2.94 2.316 0 .9-.54 1.572-1.152 1.86.864.288 1.368 1.14 1.368 2.16 0 1.572-1.344 2.544-3.12 2.544m-7.443 28c-2.172 0-3.732-1.848-3.732-4.476 0-2.616 1.56-4.404 3.732-4.404s3.732 1.788 3.732 4.404c0 2.64-1.572 4.476-3.732 4.476m0-1.536c1.212 0 1.788-1.356 1.788-2.952 0-1.572-.564-2.856-1.788-2.856-1.236 0-1.788 1.296-1.788 2.856 0 1.608.576 2.952 1.788 2.952m4.156 1.416v-1.44c3.168-2.58 4.14-3.6 4.14-4.788 0-.696-.396-1.116-1.068-1.116-.708 0-1.2.456-1.308 1.212h-1.848c.18-1.632 1.404-2.628 3.228-2.628 1.848 0 2.952 1.008 2.952 2.7 0 1.488-.792 2.592-3.36 4.644h3.528V121zm-4.156 28.12c-2.172 0-3.732-1.848-3.732-4.476 0-2.616 1.56-4.404 3.732-4.404s3.732 1.788 3.732 4.404c0 2.64-1.572 4.476-3.732 4.476m0-1.536c1.212 0 1.788-1.356 1.788-2.952 0-1.572-.564-2.856-1.788-2.856-1.236 0-1.788 1.296-1.788 2.856 0 1.608.576 2.952 1.788 2.952M120.25 149v-6.54c-.432.588-1.164 1.056-2.1 1.224v-1.8c.888-.108 2.004-.852 2.352-1.524h1.548V149zm23.038 0 3.096-8.64h2.064l3.096 8.64h-1.92l-.624-1.908h-3.252l-.624 1.908zm2.94-3.348h2.304l-1.152-3.504zM172.6 149v-8.64h4.02c1.536 0 2.568.84 2.568 2.184 0 .96-.564 1.62-1.368 1.896.936.288 1.608 1.092 1.608 2.208 0 1.428-1.044 2.352-2.652 2.352zm3.624-7.32h-1.776v2.136h1.74c.756 0 1.152-.36 1.152-1.068s-.384-1.068-1.116-1.068m.06 3.456h-1.836v2.544h1.896c.792 0 1.212-.468 1.212-1.248 0-.804-.456-1.296-1.272-1.296m28.408 3.984c-2.508 0-4.332-1.872-4.332-4.476 0-2.592 1.8-4.404 4.332-4.404 2.136 0 3.744 1.332 3.996 3.336h-1.8c-.204-1.236-1.08-1.872-2.184-1.872-1.464 0-2.472 1.08-2.472 2.928 0 1.884 1.032 3.024 2.496 3.024 1.044 0 1.92-.624 2.16-1.86h1.824c-.312 2.016-1.908 3.324-4.02 3.324"/><path stroke="#EBE4FF" stroke-linecap="round" stroke-width="2" d="M138 84v41a4 4 0 0 0 4 4h67"/></g><defs><filter id="a" width="200" height="148" x="60" y="54" color-interpolation-filters="sRGB" filterUnits="userSpaceOnUse"><feFlood flood-opacity="0" result="BackgroundImageFix"/><feColorMatrix in="SourceAlpha" result="hardAlpha" values="0 0 0 0 0 0 0 0 0 0 0 0 0 0 0 0 0 0 127 0"/><feOffset dy="12"/><feGaussianBlur stdDeviation="10"/><feComposite in2="hardAlpha" operator="out"/><feColorMatrix values="0 0 0 0 0 0 0 0 0 0 0 0 0 0 0 0 0 0 0.03 0"/><feBlend in2="BackgroundImageFix" result="effect1_dropShadow_10196_62697"/><feColorMatrix in="SourceAlpha" result="hardAlpha" values="0 0 0 0 0 0 0 0 0 0 0 0 0 0 0 0 0 0 127 0"/><feOffset dy="2"/><feGaussianBlur stdDeviation="3"/><feComposite in2="hardAlpha" operator="out"/><feColorMatrix values="0 0 0 0 0 0 0 0 0 0 0 0 0 0 0 0 0 0 0.05 0"/><feBlend in2="effect1_dropShadow_10196_62697" result="effect2_dropShadow_10196_62697"/><feBlend in="SourceGraphic" in2="effect2_dropShadow_10196_62697" result="shape"/></filter></defs></svg>

<svg width="320" height="232" viewBox="0 0 320 232" fill="none" xmlns="http://www.w3.org/2000/svg">
<g filter="url(#filter0_dd_10196_62697)">
<rect x="80" y="62" width="160" height="108" rx="12" fill="white"/>
<path d="M114.092 93.12C111.92 93.12 110.36 91.272 110.36 88.644C110.36 86.028 111.92 84.24 114.092 84.24C116.264 84.24 117.824 86.028 117.824 88.644C117.824 91.284 116.252 93.12 114.092 93.12ZM114.092 91.584C115.304 91.584 115.88 90.228 115.88 88.632C115.88 87.06 115.316 85.776 114.092 85.776C112.856 85.776 112.304 87.072 112.304 88.632C112.304 90.24 112.88 91.584 114.092 91.584ZM121.535 93.12C119.711 93.12 118.343 92.1 118.199 90.252H120.035C120.167 91.248 120.647 91.704 121.463 91.704C122.159 91.704 122.699 91.284 122.699 90.48C122.699 89.712 122.279 89.196 121.199 89.196H120.431V87.804H121.163C122.099 87.804 122.495 87.348 122.495 86.7C122.495 86.1 122.207 85.656 121.439 85.656C120.779 85.656 120.251 86.052 120.143 86.868H118.295C118.499 85.248 119.675 84.24 121.499 84.24C123.311 84.24 124.439 85.128 124.439 86.556C124.439 87.456 123.899 88.128 123.287 88.416C124.151 88.704 124.655 89.556 124.655 90.576C124.655 92.148 123.311 93.12 121.535 93.12Z" fill="#AA99EC"/>
<path d="M114.092 121.12C111.92 121.12 110.36 119.272 110.36 116.644C110.36 114.028 111.92 112.24 114.092 112.24C116.264 112.24 117.824 114.028 117.824 116.644C117.824 119.284 116.252 121.12 114.092 121.12ZM114.092 119.584C115.304 119.584 115.88 118.228 115.88 116.632C115.88 115.06 115.316 113.776 114.092 113.776C112.856 113.776 112.304 115.072 112.304 116.632C112.304 118.24 112.88 119.584 114.092 119.584ZM118.248 121V119.56C121.416 116.98 122.388 115.96 122.388 114.772C122.388 114.076 121.992 113.656 121.32 113.656C120.612 113.656 120.12 114.112 120.012 114.868H118.164C118.344 113.236 119.568 112.24 121.392 112.24C123.24 112.24 124.344 113.248 124.344 114.94C124.344 116.428 123.552 117.532 120.984 119.584H124.512V121H118.248Z" fill="#AA99EC"/>
<path d="M114.092 149.12C111.92 149.12 110.36 147.272 110.36 144.644C110.36 142.028 111.92 140.24 114.092 140.24C116.264 140.24 117.824 142.028 117.824 144.644C117.824 147.284 116.252 149.12 114.092 149.12ZM114.092 147.584C115.304 147.584 115.88 146.228 115.88 144.632C115.88 143.06 115.316 141.776 114.092 141.776C112.856 141.776 112.304 143.072 112.304 144.632C112.304 146.24 112.88 147.584 114.092 147.584ZM120.25 149V142.46C119.818 143.048 119.086 143.516 118.15 143.684V141.884C119.038 141.776 120.154 141.032 120.502 140.36H122.05V149H120.25Z" fill="#AA99EC"/>
<path d="M143.288 149L146.384 140.36H148.448L151.544 149H149.624L149 147.092H145.748L145.124 149H143.288ZM146.228 145.652H148.532L147.38 142.148L146.228 145.652Z" fill="#AA99EC"/>
<path d="M172.6 149V140.36H176.62C178.156 140.36 179.188 141.2 179.188 142.544C179.188 143.504 178.624 144.164 177.82 144.44C178.756 144.728 179.428 145.532 179.428 146.648C179.428 148.076 178.384 149 176.776 149H172.6ZM176.224 141.68H174.448V143.816H176.188C176.944 143.816 177.34 143.456 177.34 142.748C177.34 142.04 176.956 141.68 176.224 141.68ZM176.284 145.136H174.448V147.68H176.344C177.136 147.68 177.556 147.212 177.556 146.432C177.556 145.628 177.1 145.136 176.284 145.136Z" fill="#AA99EC"/>
<path d="M204.692 149.12C202.184 149.12 200.36 147.248 200.36 144.644C200.36 142.052 202.16 140.24 204.692 140.24C206.828 140.24 208.436 141.572 208.688 143.576H206.888C206.684 142.34 205.808 141.704 204.704 141.704C203.24 141.704 202.232 142.784 202.232 144.632C202.232 146.516 203.264 147.656 204.728 147.656C205.772 147.656 206.648 147.032 206.888 145.796H208.712C208.4 147.812 206.804 149.12 204.692 149.12Z" fill="#AA99EC"/>
<path d="M138 84V125C138 127.209 139.791 129 142 129H209" stroke="#EBE4FF" stroke-width="2" stroke-linecap="round"/>
</g>
<defs>
<filter id="filter0_dd_10196_62697" x="60" y="54" width="200" height="148" filterUnits="userSpaceOnUse" color-interpolation-filters="sRGB">
<feFlood flood-opacity="0" result="BackgroundImageFix"/>
<feColorMatrix in="SourceAlpha" type="matrix" values="0 0 0 0 0 0 0 0 0 0 0 0 0 0 0 0 0 0 127 0" result="hardAlpha"/>
<feOffset dy="12"/>
<feGaussianBlur stdDeviation="10"/>
<feComposite in2="hardAlpha" operator="out"/>
<feColorMatrix type="matrix" values="0 0 0 0 0 0 0 0 0 0 0 0 0 0 0 0 0 0 0.03 0"/>
<feBlend mode="normal" in2="BackgroundImageFix" result="effect1_dropShadow_10196_62697"/>
<feColorMatrix in="SourceAlpha" type="matrix" values="0 0 0 0 0 0 0 0 0 0 0 0 0 0 0 0 0 0 127 0" result="hardAlpha"/>
<feOffset dy="2"/>
<feGaussianBlur stdDeviation="3"/>
<feComposite in2="hardAlpha" operator="out"/>
<feColorMatrix type="matrix" values="0 0 0 0 0 0 0 0 0 0 0 0 0 0 0 0 0 0 0.05 0"/>
<feBlend mode="normal" in2="effect1_dropShadow_10196_62697" result="effect2_dropShadow_10196_62697"/>
<feBlend mode="normal" in="SourceGraphic" in2="effect2_dropShadow_10196_62697" result="shape"/>
</filter>
</defs>
</svg>
